_icons/SVG/506-lillipup.svg

<svg xmlns="http://www.w3.org/2000/svg" width="32" height="32"><path fill="#9E6E43" d="M27.103.398C28.769 7.468 21 11.012 21 11.012L18 11S17.904.335 26.588.008a.519.519 0 01.515.39z"/><path fill="#A7794C" d="M4.897.398C3.231 7.468 11 11.012 11 11.012L14 11S14.096.335 5.412.008a.519.519 0 00-.515.39z"/><path fill="#8D5B36" d="M26.84.074C20.931 2.583 19 9 19 9l2 2.012S28.769 7.468 27.103.398a.508.508 0 00-.263-.324z"/><path fill="#96643B" d="M5.16.074a.508.508 0 00-.263.324C3.231 7.469 11 11.012 11 11.012L13 9S11.069 2.583 5.16.074z"/><path fill="#8D5B36" d="M22.471 29.43a1 1 0 01-.231-1.053c.297-.803.76-2.385.76-4.419 0-2.988-3-6-3-6h-1v12.293c0 .39.317.707.707.707h2.586a.707.707 0 00.5-1.207l-.322-.321z"/><path fill="#96643B" d="M13 17.958h-1s-3 3.012-3 6c0 2.034.463 3.615.759 4.418a.997.997 0 01-.231 1.053l-.321.322a.708.708 0 00.5 1.207h2.586a.707.707 0 00.707-.707V17.958z"/><path fill="#9E6E43" d="M21.471 30.471a1 1 0 01-.231-1.053c.297-.803.76-2.384.76-4.418 0-2.988-1-7-1-7H11s-1 4.012-1 7c0 2.034.463 3.615.759 4.418a.997.997 0 01-.231 1.053l-.321.322a.708.708 0 00.5 1.207h2.586c.39 0 .707-.317.707-.707v-4.01a.49.49 0 01.648-.459C14.96 26.92 15.4 27 16 27s1.04-.08 1.352-.176a.49.49 0 01.648.459v4.01c0 .39.317.707.707.707h2.586a.708.708 0 00.5-1.207l-.322-.322z"/><path fill="#A7794C" d="M11 32a1 1 0 012 0h-2z"/><path fill="#96643B" d="M17.352 26.824a.49.49 0 01.648.459v4.01c0 .39.317.707.707.707h2.586a.708.708 0 00.5-1.207l-.321-.322a1 1 0 01-.231-1.053c.296-.803.759-2.384.759-4.418 0-2.988-1-7-1-7h-5v9c.6 0 1.04-.08 1.352-.176z"/><path fill="#9E6E43" d="M19 32a1 1 0 012 0h-2z"/><path fill="#FCE8CC" d="M23 17.012s2.462.224 4.699-1.723a.51.51 0 00.103-.634C26.466 12.453 24 12.012 24 12.012s1.909-.401 2.842-2.585c.108-.253-.032-.544-.284-.656-1.925-.854-4.558.241-4.558.241S23.382 7 23.078 4.491a.49.49 0 00-.558-.422C20.127 4.498 19 7.012 19 7.012s.707-4.221-2.771-5.896a.545.545 0 00-.457 0C12.293 2.791 13 7.012 13 7.012s-1.127-2.514-3.52-2.944a.49.49 0 00-.558.423C8.618 7 10 9.012 10 9.012s-2.633-1.095-4.559-.24c-.251.112-.392.402-.283.656C6.091 11.612 8 12.012 8 12.012s-2.466.441-3.801 2.642a.507.507 0 00.103.634C6.538 17.236 9 17.012 9 17.012s-1.836 1.394-1.99 3.654a.508.508 0 00.307.489c2.076.874 2.683-.143 2.683-.143s-.664 1.242-.138 2.676a.503.503 0 00.496.312c1.997-.114 2.642-.988 2.642-.988s.81 2.088 2.799 2.922a.526.526 0 00.401 0c1.99-.834 2.8-2.922 2.8-2.922s.645.874 2.643.988a.505.505 0 00.496-.312c.525-1.434-.139-2.676-.139-2.676s.607 1.017 2.682.143a.505.505 0 00.307-.489C24.836 18.407 23 17.012 23 17.012z"/><path fill="#F5DEB9" d="M16.201 25.934C18.19 25.1 19 23.012 19 23.012s.645.874 2.643.988a.505.505 0 00.496-.312c.525-1.434-.139-2.676-.139-2.676s.607 1.017 2.682.143a.505.505 0 00.307-.489c-.154-2.26-1.99-3.654-1.99-3.654s2.462.224 4.699-1.723a.51.51 0 00.102-.635c-1.334-2.201-3.8-2.642-3.8-2.642s1.909-.401 2.842-2.584c.108-.253-.032-.544-.284-.656-1.925-.855-4.558.24-4.558.24S23.382 7 23.078 4.491a.49.49 0 00-.558-.422C20.127 4.498 19 7.012 19 7.012s.707-4.221-2.771-5.896a.542.542 0 00-.229-.05v24.908a.53.53 0 00.201-.04z"/><ellipse fill="#FFF" cx="12" cy="15" rx="2" ry="3"/><path fill="#373F3F" d="M13.986 15.237C13.916 13.76 13.282 13 12.5 13c-.828 0-1.5.843-1.5 2.5 0 1.495.548 2.32 1.263 2.469.934-.145 1.658-1.063 1.723-2.732z"/><circle fill="#FFF" cx="12.5" cy="14.5" r=".5"/><path fill="#DE8490" d="M17.5 17.771c0 .887-.672 1.606-1.5 1.606s-1.5-.719-1.5-1.606c0-.887.672-.394 1.5-.394s1.5-.492 1.5.394z"/><path fill="#DD7C8A" d="M17.5 17.771c0-.887-.672-.394-1.5-.394v2c.828 0 1.5-.719 1.5-1.606z"/><circle fill="#373F3F" cx="16" cy="21" r="1"/><path fill="#2B3332" d="M16 20v2a1 1 0 000-2z"/><ellipse fill="#F7F7F7" cx="20" cy="15" rx="2" ry="3"/><path fill="#2B3332" d="M18.014 15.237C18.084 13.76 18.718 13 19.5 13c.828 0 1.5.843 1.5 2.5 0 1.495-.548 2.32-1.263 2.469-.934-.145-1.658-1.063-1.723-2.732z"/><circle fill="#F7F7F7" cx="19.5" cy="14.5" r=".5"/></svg>

<?xml version="1.0" encoding="utf-8"?>
<!-- Generator: Adobe Illustrator 23.0.6, SVG Export Plug-In . SVG Version: 6.00 Build 0)  -->
<svg version="1.1" xmlns="http://www.w3.org/2000/svg" xmlns:xlink="http://www.w3.org/1999/xlink" x="0px" y="0px" width="32px"
	 height="32px" viewBox="0 0 32 32" enable-background="new 0 0 32 32" xml:space="preserve">
<g id="labels">
	<g>
	</g>
</g>
<g id="icons">
	<g>
		<path fill="#9E6E43" d="M27.103,0.398C28.769,7.468,21,11.012,21,11.012L18,11c0,0-0.096-10.665,8.588-10.992
			C26.825-0.001,27.049,0.168,27.103,0.398z"/>
		<path fill="#A7794C" d="M4.897,0.398C3.231,7.468,11,11.012,11,11.012L14,11c0,0,0.096-10.665-8.588-10.992
			C5.175-0.001,4.951,0.168,4.897,0.398z"/>
		<path fill="#8D5B36" d="M26.84,0.074C20.931,2.583,19,9,19,9l2,2.012h0c0,0,7.769-3.544,6.103-10.614
			C27.069,0.255,26.967,0.142,26.84,0.074z"/>
		<path fill="#96643B" d="M5.16,0.074C5.033,0.142,4.931,0.255,4.897,0.398C3.231,7.469,11,11.012,11,11.012h0L13,9
			C13,9,11.069,2.583,5.16,0.074z"/>
		<g>
			<path fill="#8D5B36" d="M22.471,29.43c-0.276-0.276-0.366-0.686-0.231-1.053C22.537,27.574,23,25.992,23,23.958c0-2.988-3-6-3-6
				h-1v12.293c0,0.39,0.317,0.707,0.707,0.707h2.586c0.391,0,0.707-0.317,0.707-0.707c0-0.188-0.075-0.367-0.207-0.5L22.471,29.43z"
				/>
			<path fill="#96643B" d="M13,17.958h-1c0,0-3,3.012-3,6c0,2.034,0.463,3.615,0.759,4.418c0.135,0.367,0.046,0.777-0.231,1.053
				l-0.321,0.322C9.075,29.884,9,30.064,9,30.251c0,0.39,0.317,0.707,0.707,0.707h2.586c0.391,0,0.707-0.317,0.707-0.707V17.958z"/>
		</g>
		<path fill="#9E6E43" d="M21.471,30.471c-0.276-0.276-0.366-0.686-0.231-1.053C21.537,28.615,22,27.034,22,25c0-2.988-1-7-1-7h-5
			h-5c0,0-1,4.012-1,7c0,2.034,0.463,3.615,0.759,4.418c0.135,0.367,0.046,0.777-0.231,1.053l-0.321,0.322
			C10.075,30.926,10,31.105,10,31.293C10,31.683,10.317,32,10.707,32h2.586C13.683,32,14,31.683,14,31.293v-4.01
			c0-0.336,0.327-0.558,0.648-0.459C14.96,26.92,15.4,27,16,27s1.04-0.08,1.352-0.176C17.673,26.725,18,26.948,18,27.283v4.01
			C18,31.683,18.317,32,18.707,32h2.586C21.683,32,22,31.683,22,31.293c0-0.188-0.075-0.367-0.207-0.5L21.471,30.471z"/>
		<path fill="#A7794C" d="M11,32c0-0.552,0.448-1,1-1h0c0.552,0,1,0.448,1,1H11z"/>
		<path fill="#96643B" d="M17.352,26.824C17.673,26.725,18,26.948,18,27.283v4.01C18,31.683,18.317,32,18.707,32h2.586
			C21.683,32,22,31.683,22,31.293c0-0.188-0.075-0.367-0.207-0.5l-0.321-0.322c-0.276-0.276-0.366-0.686-0.231-1.053
			C21.537,28.615,22,27.034,22,25c0-2.988-1-7-1-7h-5v9C16.6,27,17.04,26.92,17.352,26.824z"/>
		<path fill="#9E6E43" d="M19,32c0-0.552,0.448-1,1-1h0c0.552,0,1,0.448,1,1H19z"/>
		<path fill="#FCE8CC" d="M23,17.012c0,0,2.462,0.224,4.699-1.723c0.178-0.155,0.225-0.432,0.103-0.634
			C26.466,12.453,24,12.012,24,12.012s1.909-0.401,2.842-2.585c0.108-0.253-0.032-0.544-0.284-0.656C24.633,7.917,22,9.012,22,9.012
			S23.382,7,23.078,4.491c-0.032-0.267-0.293-0.47-0.558-0.422C20.127,4.498,19,7.012,19,7.012s0.707-4.221-2.771-5.896
			c-0.14-0.067-0.318-0.067-0.457,0C12.293,2.791,13,7.012,13,7.012s-1.127-2.514-3.52-2.944C9.215,4.021,8.954,4.223,8.922,4.491
			C8.618,7,10,9.012,10,9.012S7.367,7.917,5.441,8.772C5.19,8.884,5.049,9.174,5.158,9.428C6.091,11.612,8,12.012,8,12.012
			s-2.466,0.441-3.801,2.642c-0.123,0.202-0.076,0.479,0.103,0.634C6.538,17.236,9,17.012,9,17.012s-1.836,1.394-1.99,3.654
			c-0.014,0.206,0.117,0.409,0.307,0.489C9.393,22.029,10,21.012,10,21.012s-0.664,1.242-0.138,2.676
			c0.072,0.198,0.286,0.324,0.496,0.312C12.355,23.886,13,23.012,13,23.012s0.81,2.088,2.799,2.922c0.125,0.053,0.276,0.053,0.401,0
			C18.19,25.1,19,23.012,19,23.012s0.645,0.874,2.643,0.988c0.21,0.012,0.423-0.115,0.496-0.312C22.664,22.254,22,21.012,22,21.012
			s0.607,1.017,2.682,0.143c0.191-0.08,0.322-0.283,0.307-0.489C24.836,18.407,23,17.012,23,17.012z"/>
		<path fill="#F5DEB9" d="M16.201,25.934C18.19,25.1,19,23.012,19,23.012s0.645,0.874,2.643,0.988
			c0.21,0.012,0.423-0.115,0.496-0.312C22.664,22.254,22,21.012,22,21.012s0.607,1.017,2.682,0.143
			c0.191-0.08,0.322-0.283,0.307-0.489c-0.154-2.26-1.99-3.654-1.99-3.654s2.462,0.224,4.699-1.723
			c0.178-0.155,0.225-0.432,0.102-0.635C26.466,12.453,24,12.012,24,12.012s1.909-0.401,2.842-2.584
			c0.108-0.253-0.032-0.544-0.284-0.656C24.633,7.917,22,9.012,22,9.012S23.382,7,23.078,4.491c-0.032-0.267-0.293-0.47-0.558-0.422
			C20.127,4.498,19,7.012,19,7.012s0.707-4.221-2.771-5.896C16.159,1.083,16.079,1.066,16,1.066v24.908
			C16.069,25.974,16.138,25.96,16.201,25.934z"/>
		<ellipse fill="#FFFFFF" cx="12" cy="15" rx="2" ry="3"/>
		<path fill="#373F3F" d="M13.986,15.237C13.916,13.76,13.282,13,12.5,13c-0.828,0-1.5,0.843-1.5,2.5
			c0,1.495,0.548,2.32,1.263,2.469C13.197,17.824,13.921,16.906,13.986,15.237z"/>
		<circle fill="#FFFFFF" cx="12.5" cy="14.5" r="0.5"/>
		<path fill="#DE8490" d="M17.5,17.771c0,0.887-0.672,1.606-1.5,1.606c-0.828,0-1.5-0.719-1.5-1.606c0-0.887,0.672-0.394,1.5-0.394
			C16.828,17.377,17.5,16.885,17.5,17.771z"/>
		<path fill="#DD7C8A" d="M17.5,17.771c0-0.887-0.672-0.394-1.5-0.394v2C16.828,19.377,17.5,18.658,17.5,17.771z"/>
		<circle fill="#373F3F" cx="16" cy="21" r="1"/>
		<path fill="#2B3332" d="M16,20v2c0.552,0,1-0.448,1-1S16.552,20,16,20z"/>
		<ellipse fill="#F7F7F7" cx="20" cy="15" rx="2" ry="3"/>
		<path fill="#2B3332" d="M18.014,15.237C18.084,13.76,18.718,13,19.5,13c0.828,0,1.5,0.843,1.5,2.5c0,1.495-0.548,2.32-1.263,2.469
			C18.803,17.824,18.079,16.906,18.014,15.237z"/>
		<circle fill="#F7F7F7" cx="19.5" cy="14.5" r="0.5"/>
	</g>
</g>
</svg>
